packages/icon/src/svg/clock.icon.svg

<svg role="img" aria-label="clock icon" xmlns="http://www.w3.org/2000/svg" viewBox="0 0 24 24">
  <path d="M11.513,6.99933 L12.513,6.99933 C12.7891,6.99933 13.013,7.22319 13.013,7.49933 L13.013,11.57773 L15.9126,14.4774 C16.1078,14.6726 16.1078,14.9892 15.9126,15.1844 L15.2055,15.8916 C15.0103,16.0868 14.6937,16.0868 14.4984,15.8916 L11.013,12.4062 L11.013,7.49933 C11.013,7.22319 11.23688,6.99933 11.513,6.99933 Z M2,12 C2,6.48608 6.48608,2 12,2 C17.5139,2 22,6.48608 22,12 C22,17.5139 17.5139,22 12,22 C6.48608,22 2,17.5139 2,12 Z M4,12 C4,16.4111 7.58887,20 12,20 C16.4111,20 20,16.4111 20,12 C20,7.58887 16.4111,4 12,4 C7.58887,4 4,7.58887 4,12 Z"/>
</svg>

<svg aria-label="clock icon" viewBox="0 0 24 24"><path d="M11.513 7h1a.5.5 0 01.5.5v4.078l2.9 2.9a.5.5 0 010 .706l-.707.708a.5.5 0 01-.708 0l-3.485-3.486V7.5a.5.5 0 01.5-.5zM2 12C2 6.486 6.486 2 12 2s10 4.486 10 10-4.486 10-10 10S2 17.514 2 12zm2 0c0 4.411 3.589 8 8 8s8-3.589 8-8-3.589-8-8-8-8 3.589-8 8z"/></svg>
